!!!ONB: MCCC : IJH0403_04 : Extracted Monophonic Melody
!!!COM: Haydn, Joseph
!!!OPR: String Quartet in B minor
!!!OMV: 4
!!!SCT: Hob.III:37 ; Op.33 No.1
!!!ODT: 1781///
**kern
*thru
*k[f#c#]
*b:
*clefG
*M2/4
8B
8B
=1
8B
8d
8f#
8f#
=2
4f#
8B
8B
=3
8B
8e
8g
8g
=4
4g
8A#
8A#
=5
8A#
8c#
8f#
8e
=6
4d
4c#
=7
4.B
8d
=8
4d
8c#
8e
=9
4e
8d#
8f#
=10
8.e
16f#
8g
8g
=11
8f#
8B
8c#
16B
16A#
=12
4B
4r
=13
16d
16b
16ff#
16gg
16ff#
16bb
16aa
16gg
=14
8ff#
16dd
16ff#
16cc#
16ff#
16b
16ff#
=15
16a#
16cc#
16ff#
16gg
16ff#
16ccc#
16aa#
16gg#
=16
8ff#
16ee
16ff#
16dd
16ff#
16cc#
16ff#
=17
16d
16b
16ff#
16gg
16ff#
16bb
16aa
16gg
=18
8ff#
16dd
16ff#
16cc#
16ff#
16b
16ff#
=19
16a#
16cc#
16ff#
16gg
16ff#
16ccc#
16aa#
16gg#
=20
8ff#
16ee
16ff#
16dd
16ff#
16cc#
16ff#
=21
16d
16b
16ff#
16gg
16ff#
16bb
16aa
16gg
=22
8ff#
16b
16ff#
16cc#
16ff#
16dd
16ff#
=23
16e
16b
16gg
16aa
16gg
16bb
16gg
16ff#
=24
8ee
16e
16b
16f#
16b
16g
16b
=25
16A
16c#
16e
16a
16cc#
16ee
16cc#
16b
=26
8a
16e
16a
16f#
16a
16g
16a
=27
16d
16f#
16a
16dd
16ff#
16aa
16ff#
16ee
=28
8dd
16d
16a
16e
16a
16f#
16a
=29
16e
16g
16cc#
16ee
16gg
16bb
16gg
16ff#
=30
8ee
16e
16a
16f#
16a
16g
16a
=31
16f#
16d
16e
16f#
16g
16a
16b
16cc#
=32
16dd
16ee
16ff#
16gg
16aa
16bb
16ccc#
16ddd
=33
8ddd
8bb
4bb[
=34
8bb]
8bb
8ccc#
8ddd
=35
8ddd
8aa
4aa[
=36
8aa]
8fff#
8ddd
8bb
=37
8aa
8gg#
4gg#[
=38
8gg#]
16ee
16gg#
16ee
16gg#
16ee
16gg#
=39
8eee
8gg
4gg[
=40
8gg]
16ee
16gg
16ee
16gg
16ee
16gg
=41
8eee
8a
4a[
=42
8a]
8ee
8cc#
8g
=43
8f#
8dd
8dd
8dd
=44
8b
8bb
8bb
8bb
=45
2a
=46
2ee
=47
8dd
8dd
8dd
8dd
=48
8b
8ddd
8ddd
8ddd
=49
2a
=50
2ee
=51
4dd
8r
8ff#
=52
8ff#
8gg
8r
8ee
=53
8ee
8ff#
8r
8dd
=54
8ee
8ee
8cc#
8cc#
=55
4dd
8r
8ff#
=56
8ff#
8bb
8r
8ee
=57
8ee
8aa
8r
8ff#
=58
8ee
8ee
8cc#
8cc#
=59
16dd
16a
16f#
16a
16g
16a
16g
16a
=60
16f#
16a
16f#
16a
16e
16a
16e
16a
=61
16f#
16a
16f#
16a
16g
16a
16g
16a
=62
16f#
16a
16f#
16a
16e
16a
16e
16a
=63
4d
8dd
8dd
=64
8dd
8ff#
8aa
8aa
=65
4aa
8cc
8cc
=66
8cc
8ff#
8aa
8aa
=67
4aa
8b
8b
=68
8b
8dd#
8ff#
8aa
=69
4aa
8dd#
8dd#
=70
8dd#
8ff#
8aa
8ccc
=71
2ccc
=72
2dd#
=73
16e
16g
16b
16ee
16gg
16bb
16gg
16ff#
=74
4ee
4r
=75
16a
16b
16dd#
16ff#
16aa
16ff#
16dd#
16b
=76
4a
4r
=77
16a
16b
16dd#
16ff#
16aa
16ccc
16aa
16gg
=78
4ff#
4r
=79
16e
16g
16b
16ee
16gg
16bb
16gg
16ff#
=80
4ee
4r
=81
16d
16e
16g#
16b
16dd
16ee
16gg#
16bb
=82
4gg#
4r
=83
16a
16cc#
16ee
16aa
16ccc#
16eee
16ccc#
16aa
=84
4a
4r
=85
16a
16cc#
16ee
16aa
16ccc#
16eee
16ccc#
16aa
=86
8gg
8ee
8cc#
8a
=87
2g
=88
2g[
=89
4g]
4r
=90
4r
8dd
8dd
=91
8dd
8cc#
4r
=92
4r
8cc#
8cc#
=93
8cc#
8dd
4r
=94
4r
8ddd
8ddd
=95
8ddd
8ccc#
4r
=96
4r
8ccc#
8ccc#
=97
8ccc#
8ddd
8gg#
8gg#
=98
8gg#
8aa
8ff#
8ff#
=99
8ff#
8gg
8ee#
8ee#
=100
8ee#
8ff#
8dd#
8dd#
=101
8dd#
8ee
4r
=102
4r
8gg
8gg
=103
8gg
8ff#
8ee
8ee
=104
8ee
8dd
8gg
8gg
=105
8gg
8ff#
8ff#
8ff#
=106
8ff#
8ee
8ee
8dd
=107
8dd
8cc#
8f#
8f#
=108
8f#
8d
8d
8B
=109
4f#
8B
8B
=110
8B
8d
8f#
8f#
=111
4f#
8B
8B
=112
8B
8e
8g
8g
=113
4g
8A#
8A#
=114
8A#
8c#
8f#
8e
=115
4d
4c#
=116
4.B
8d
=117
4d
8c#
8e
=118
4e
8d#
8f#
=119
2f#
=120
4e
4r
=121
2r
=122
4.r
8a
=123
4a
8g
8r
=124
4.r
8cc#
=125
4cc#
8b
8r
=126
4.r
8ee
=127
4ee
8dd
8r
=128
4.r
8gg#
=129
2gg#
=130
4ff#
4ee#
=131
2ee#
=132
4ff#
4ee
=133
2ee
=134
4dd
4cc#
=135
2cc#[
=136
2cc#]
=137
16d
16b
16ff#
16gg
16ff#
16bb
16aa
16gg
=138
8ff#
16dd
16ff#
16cc#
16ff#
16b
16ff#
=139
16a#
16cc#
16ff#
16gg
16ff#
16ccc#
16aa#
16gg#
=140
8ff#
16ee
16ff#
16dd
16ff#
16cc#
16ff#
=141
16d
16b
16ff#
16gg
16ff#
16bb
16aa
16gg
=142
8ff#
16dd
16ff#
16cc#
16ff#
16b
16ff#
=143
16a#
16cc#
16ff#
16gg
16ff#
16ccc#
16aa#
16gg#
=144
8ff#
16ee
16ff#
16dd
16ff#
16cc#
16ff#
=145
16d
16b
16ff#
16gg
16ff#
16bb
16aa
16gg
=146
8ff#
16b
16ff#
16cc#
16ff#
16dd
16ff#
=147
16e
16b
16gg
16aa
16gg
16bb
16gg
16ff#
=148
8ee
16e
16b
16f#
16b
16g
16b
=149
16e#
16cc#
16gg#
16aa
16gg#
16bb
16gg#
16ff#
=150
8ee#
16e#
16cc#
16f#
16cc#
16g#
16cc#
=151
16a#
16cc#
16ff#
16ff#
16ff#
16ff#
16ff#
16ff#
=152
16ee
16ff#
16ee
16ff#
16dd
16ff#
16dd
16ff#
=153
16cc#
16ff#
16cc#
16ff#
16dd
16ff#
16dd
16ff#
=154
16ee
16ff#
16ee
16ff#
16dd
16ff#
16dd
16ff#
=155
16cc#
16f#
16g#
16a#
16b
16cc#
16dd#
16ee#
=156
16ff#
16gg#
16aa#
16bb
8ccc#
8aa#
=157
8bb
8bb
4bb[
=158
8bb]
8ddd
8bb
8gg
=159
8ff#
8ee
4ee[
=160
8ee]
8eee
8eee
8eee
=161
8eee
8gg
4gg[
=162
8gg]
16ee
16gg
16ee
16gg
16ee
16gg
=163
8eee
8gg
4gg[
=164
8gg]
16ee
16gg
16ee
16gg
16ee
16gg
=165
8eee
8aa#
4aa#[
=166
8aa#]
8ccc#
8aa#
8ee
=167
8dd
8bb
8bb
8bb
=168
8gg
8ee
8ee
8ee
=169
2f#
=170
2cc#
=171
8b
8b
8b
8b
=172
8g
8bb
8bb
8bb
=173
2f#
=174
2cc#
=175
4b
8r
8ff#
=176
8ff#
8gg
8r
8ee
=177
8ee
8ff#
8r
8dd
=178
8cc#
8cc#
8a#
8a#
=179
8b
8r
8B
8B
=180
8B
8d
8f#
8f#
=181
4f#
8B
8B
=182
8B
8d
8g#
8g#
=183
4g#
8B
8B
=184
8B
8d
8c#
8A#
=185
4B
16f#
16ee
16f#
16ee
=186
16f#
16dd
16f#
16dd
16f#
16cc#
16f#
16cc#
=187
16f#
16dd
16f#
16dd
16f#
16ee
16f#
16ee
=188
16f#
16dd
16f#
16dd
16f#
16cc#
16f#
16cc#
=189
4b
4bb
=190
4bb
4r
==
*-
